X: 5
T: Missa Ave Maria / Agnus Dei
N: Derived from Fva1001e-Missa_Ave_Maria-Agnus.krn
C: Antoine de F\'evin
%%abc-version 2.0
%%abcx-abcm2ps-target-version 5.9.1 (29 Sep 2008)
%%abc-creator hum2abc beta
%%abcx-conversion-date 2019/02/16 20:34:23
%%abc-edited-by Jesse Rodin
%%abc-edited-by Richard Freedman (CRIM)
%%abcx-initial-encoding-date 2016/03/29/
%%humdrum-veritas 4024887905
%%humdrum-veritas-data 628811237
%%linebreak <none>
%%barnumbers 0
L: 1/4
M: 2/1
Q: 1/2=120
%%staves [1 2 3 4]
V: 1 clef=treble
V: 2 clef=treble-8
V: 3 clef=treble-8
V: 4 clef=bass
K: C
[V:1] G4c4- | 
[V:2] z8 | 
[V:3] z8 | 
[V:4] z8 | 
[V:1] c4c4 | 
[V:2] z8 | 
[V:3] z8 | 
[V:4] z8 | 
[V:1] d4e4 | 
[V:2] G4c4- | 
[V:3] z8 | 
[V:4] z8 | 
[V:1] c8 | 
[V:2] c4c4 | 
[V:3] z8 | 
[V:4] z8 | 
[V:1] z4c4 | 
[V:2] d4e3d | 
[V:3] G4c4- | 
[V:4] z4C,4 | 
[V:1] c6B2 | 
[V:2] c3BA4- | 
[V:3] c4c4 | 
[V:4] F,8 | 
[V:1] A4G4 | 
[V:2] A4B4 | 
[V:3] d4e4 | 
[V:4] F,4G,4 | 
[V:1] c8 | 
[V:2] z4e4 | 
[V:3] c8 | 
[V:4] A,6G,2 | 
[V:1] d2e2f4 | 
[V:2] f6ed | 
[V:3] z4B4 | 
[V:4] F,2E,2D,4 | 
[V:1] e4c2g2- | 
[V:2] g8 | 
[V:3] c6BA | 
[V:4] C,8 | 
[V:1] gfe4dc | 
[V:2] z2g4f2 | 
[V:3] B4c4 | 
[V:4] G,4A,4 | 
[V:1] B3ABcd2- | 
[V:2] g3fd3e | 
[V:3] d4G4 | 
[V:4] G,6F,E, | 
[V:1] d2cBA4 | 
[V:2] f2e4d2 | 
[V:3] A8 | 
[V:4] D,2E,2F,4 | 
[V:1] G8- | 
[V:2] e8- | 
[V:3] B3AB2c2- | 
[V:4] E,6D,C, | 
[V:1] G8- | 
[V:2] e8 | 
[V:3] c2BAG4 | 
[V:4] C,8 | 
[V:1] G8 | 
[V:2] z8 | 
[V:3] z4G4 | 
[V:4] z8 | 
[V:1] z8 | 
[V:2] z8 | 
[V:3] c6B2 | 
[V:4] C,4F,4- | 
[V:1] z8 | 
[V:2] z8 | 
[V:3] c4d4- | 
[V:4] F,2E,2F,4 | 
[V:1] z8 | 
[V:2] z8 | 
[V:3] d2B4AG | 
[V:4] G,6E,2- | 
[V:1] z8 | 
[V:2] z8 | 
[V:3] G8 | 
[V:4] E,2D,C,C,3D, | 
[V:1] z8 | 
[V:2] z8 | 
[V:3] z2c2d4 | 
[V:4] E,2F,4G,2 | 
[V:1] z8 | 
[V:2] z8 | 
[V:3] e6dc | 
[V:4] E,2A,3G,F,E, | 
[V:1] z8 | 
[V:2] z8 | 
[V:3] f4e2f2- | 
[V:4] D,2A,3G,A,2- | 
[V:1] z8 | 
[V:2] z8 | 
[V:3] fee3cdB | 
[V:4] A,G,F,E,F,4 | 
[V:1] z4G4 | 
[V:2] z8 | 
[V:3] e8 | 
[V:4] E,8 | 
[V:1] c6B2 | 
[V:2] c4f4- | 
[V:3] z8 | 
[V:4] z8 | 
[V:1] c4d4- | 
[V:2] f2e2f4 | 
[V:3] z8 | 
[V:4] z8 | 
[V:1] d2B4AG | 
[V:2] g6e2- | 
[V:3] z8 | 
[V:4] z8 | 
[V:1] G8 | 
[V:2] e2dcc3d | 
[V:3] z8 | 
[V:4] z8 | 
[V:1] z2c2d4 | 
[V:2] e2f4g2 | 
[V:3] z8 | 
[V:4] z8 | 
[V:1] e6dc | 
[V:2] e2a3gfe | 
[V:3] z8 | 
[V:4] z8 | 
[V:1] f4e2f2- | 
[V:2] d2a3ga2- | 
[V:3] z8 | 
[V:4] z8 | 
[V:1] fee4d2 | 
[V:2] agfef4 | 
[V:3] z8 | 
[V:4] z2G,2A,2B,2 | 
[V:1] e4d2e2- | 
[V:2] e4g4- | 
[V:3] z2c2d2c2 | 
[V:4] C4B,2C2- | 
[V:1] e2dcB4 | 
[V:2] g8 | 
[V:3] e6d2- | 
[V:4] C2B,A,G,4 | 
[V:1] d4c2d2- | 
[V:2] f8- | 
[V:3] d2_B2c2_B2 | 
[V:4] _B,4A,2B,2- | 
[V:1] d2cBA4 | 
[V:2] f8 | 
[V:3] d6c2- | 
[V:4] B,2A,G,F,4 | 
[V:1] c4B2c2- | 
[V:2] e8 | 
[V:3] c2A2B2A2 | 
[V:4] A,4G,2A,2- | 
[V:1] c2BAG2A2- | 
[V:2] e3fg2f2 | 
[V:3] c3de2d2 | 
[V:4] A,2G,F,E,2F,2 | 
[V:1] AGG4^F2 | 
[V:2] d2e2d4 | 
[V:3] B2c2A4 | 
[V:4] G,2C,2D,4 | 
[V:1] G8 | 
[V:2] B8 | 
[V:3] G4z2G2 | 
[V:4] z2G,4E,2 | 
[V:1] z8 | 
[V:2] z8 | 
[V:3] A4B4 | 
[V:4] F,E,D,C,D,4 | 
[V:1] z4z2G2 | 
[V:2] z2g4e2 | 
[V:3] c8 | 
[V:4] C,8 | 
[V:1] A4B4 | 
[V:2] fedcd4 | 
[V:3] z8 | 
[V:4] z4z2G,2 | 
[V:1] c4A2B2- | 
[V:2] c2f3edc | 
[V:3] z2c2d4 | 
[V:4] A,4F,2G,2- | 
[V:1] B2c4d2- | 
[V:2] B2A2c2B2 | 
[V:3] e4f4 | 
[V:4] G,2A,4B,2- | 
[V:1] d2B2c4 | 
[V:2] G4z4 | 
[V:3] d2e4f2- | 
[V:4] B,2G,2A,4 | 
[V:1] d4e2f2- | 
[V:2] z2G2c3B | 
[V:3] f2g3ea2- | 
[V:4] B,2B,2CB,A,G, | 
[V:1] fedcdBe2- | 
[V:2] c2d4B2 | 
[V:3] agfef2g2 | 
[V:4] A,2B,4G,2 | 
[V:1] edc4B2 | 
[V:2] c4g4 | 
[V:3] e2f2d4 | 
[V:4] A,3F,G,4 | 
[V:1] c8- | 
[V:2] c8 | 
[V:3] c8- | 
[V:4] C,8- | 
[V:1] c8 ||  
[V:2] g8 ||  
[V:3] c8 ||  
[V:4] C,8 ||  
[V:1]  [K:C] [K:clef=treble][M:2/1]z8 | 
[V:2]  [K:C] [K:clef=treble-8][M:2/1]c3de2f2- | 
[V:3]  [K:C] [K:clef=treble-8][M:2/1]z8 | 
[V:4]  [K:C] [K:clef=bass][M:2/1]z8 | 
[V:1] z8 | 
[V:2] f2edefg2- | 
[V:3] z8 | 
[V:4] z8 | 
[V:1] z4G3A | 
[V:2] g2^f2g4- | 
[V:3] z8 | 
[V:4] z8 | 
[V:1] B2c4BA | 
[V:2] g2e2f4 | 
[V:3] z8 | 
[V:4] z8 | 
[V:1] Bcd4^c2 | 
[V:2] g4e4 | 
[V:3] z8 | 
[V:4] z8 | 
[V:1] d8 | 
[V:2] d3ef2g2- | 
[V:3] z8 | 
[V:4] z8 | 
[V:1] e6dc | 
[V:2] gfedc4 | 
[V:3] z8 | 
[V:4] z8 | 
[V:1] d2e2f4- | 
[V:2] g4a4- | 
[V:3] z8 | 
[V:4] z8 | 
[V:1] f2ede2d2- | 
[V:2] a4g4 | 
[V:3] z8 | 
[V:4] z8 | 
[V:1] d2cBA4 | 
[V:2] f8 | 
[V:3] z8 | 
[V:4] z8 | 
[V:1] G3ABcde | 
[V:2] e3fgag2 | 
[V:3] z8 | 
[V:4] z8 | 
[V:1] dcc4B2 | 
[V:2] fedcd4 | 
[V:3] z8 | 
[V:4] z8 | 
[V:1] c8- | 
[V:2] c4z2c2 | 
[V:3] z8 | 
[V:4] z8 | 
[V:1] c8 | 
[V:2] f4f4 | 
[V:3] z8 | 
[V:4] z8 | 
[V:1] z4c4 | 
[V:2] e3de2f2- | 
[V:3] z8 | 
[V:4] z8 | 
[V:1] f4f4 | 
[V:2] fedcd4 | 
[V:3] z8 | 
[V:4] z8 | 
[V:1] e3de2f2- | 
[V:2] a8 | 
[V:3] z8 | 
[V:4] z8 | 
[V:1] fedcd2cB | 
[V:2] a4g4 | 
[V:3] z8 | 
[V:4] z8 | 
[V:1] A3Bcde2- | 
[V:2] f3ga2gf | 
[V:3] z8 | 
[V:4] z8 | 
[V:1] e2dcd2e2 | 
[V:2] g2a2_b2a2 | 
[V:3] z8 | 
[V:4] z8 | 
[V:1] f3ecde2- | 
[V:2] defgafg2- | 
[V:3] z8 | 
[V:4] z8 | 
[V:1] edd4^c2 | 
[V:2] gfede4 | 
[V:3] z8 | 
[V:4] z8 | 
[V:1] d4z2d2- | 
[V:2] z2d3cBA | 
[V:3] z8 | 
[V:4] z8 | 
[V:1] d2B2c4 | 
[V:2] B2G2A4 | 
[V:3] z8 | 
[V:4] z8 | 
[V:1] B2d3cB2- | 
[V:2] G4z2g2- | 
[V:3] z8 | 
[V:4] z8 | 
[V:1] B2AGA4 | 
[V:2] g2e2f4 | 
[V:3] z8 | 
[V:4] z8 | 
[V:1] G4z2g2- | 
[V:2] e2g3fe2- | 
[V:3] z8 | 
[V:4] z8 | 
[V:1] g2e2f4 | 
[V:2] e2dcd4 | 
[V:3] z8 | 
[V:4] z8 | 
[V:1] e2g3fe2- | 
[V:2] c8 | 
[V:3] z8 | 
[V:4] z8 | 
[V:1] e2dcd4 | 
[V:2] z4g4 | 
[V:3] z8 | 
[V:4] z8 | 
[V:1] c2f3edc | 
[V:2] a4f2g2- | 
[V:3] z8 | 
[V:4] z8 | 
[V:1] d2e4dc | 
[V:2] gfede2f2 | 
[V:3] z8 | 
[V:4] z8 | 
[V:1] B3cd2G2- | 
[V:2] g4G3A | 
[V:3] z8 | 
[V:4] z8 | 
[V:1] GABcd2e2- | 
[V:2] Bcdef2g2- | 
[V:3] z8 | 
[V:4] z8 | 
[V:1] edcBcded/e/ | 
[V:2] gfedefge | 
[V:3] z8 | 
[V:4] z8 | 
[V:1] dcc4B2 | 
[V:2] fedcd4 | 
[V:3] z8 | 
[V:4] z8 | 
[V:1] c8 |]  
[V:2] c8 |]  
[V:3] z8 |]  
[V:4] z8 |]  
